public/images/logo3.svg

<svg width="240" height="200" fill="none" xmlns="http://www.w3.org/2000/svg"><path d="M117.968 88.728c.368.08.72.168 1.056.264.336.08.664.184.984.312V90h-6.312v-.696c.352-.16.688-.28 1.008-.36.32-.08.64-.152.96-.216V74.496c-.416-.08-.784-.168-1.104-.264-.32-.112-.608-.224-.864-.336V73.2h2.112c.64 0 1.336-.032 2.088-.096a26.89 26.89 0 0 1 2.232-.096 8.6 8.6 0 0 1 2.184.264c.688.176 1.28.456 1.776.84.496.384.88.872 1.152 1.464.288.592.432 1.304.432 2.136 0 1.168-.312 2.136-.936 2.904-.608.768-1.44 1.32-2.496 1.656a81.367 81.367 0 0 0 2.16 3.24 85.895 85.895 0 0 0 2.352 3.192l1.296.696v.6h-2.904l-.912-.672a30.95 30.95 0 0 1-1.224-1.632 30.639 30.639 0 0 1-1.032-1.632c-.32-.56-.624-1.12-.912-1.68-.272-.576-.552-1.184-.84-1.824h-2.256v6.168Zm1.632-14.472c-.384 0-.704.008-.96.024-.24.016-.464.048-.672.096v7.176h1.728c1.104 0 1.976-.352 2.616-1.056.656-.704.984-1.632.984-2.784 0-1.184-.344-2.056-1.032-2.616-.688-.56-1.576-.84-2.664-.84ZM114.008 112.2a4.156 4.156 0 0 1-.672-.24 7.837 7.837 0 0 1-.6-.336V111h5.016v.6c-.336.224-.792.424-1.368.6l3.072 7.104.456 1.488h.048l.36-1.512 2.28-7.08a3.363 3.363 0 0 1-1.32-.576V111h4.104v.624c-.336.224-.792.416-1.368.576l-3.744 10.8c-.384 1.024-.752 1.848-1.104 2.472-.336.64-.68 1.144-1.032 1.512-.336.368-.688.632-1.056.792a4.435 4.435 0 0 1-1.152.384 7.37 7.37 0 0 1-.48-1.008c-.128-.368-.24-.72-.336-1.056l.312-.576h2.496c.096-.128.176-.256.24-.384.08-.112.16-.256.24-.432.08-.176.168-.4.264-.672s.208-.616.336-1.032l-4.992-10.8Z" fill="#fff"/><rect x="95.5" y="59.5" width="49" height="81" rx="19.5" stroke="#fff"/><path stroke="#fff" d="M109 99.5h22"/></svg>

<svg width="240" height="200" viewBox="0 0 240 200" fill="none" xmlns="http://www.w3.org/2000/svg">
<path d="M117.968 88.728C118.336 88.808 118.688 88.896 119.024 88.992C119.36 89.072 119.688 89.176 120.008 89.304V90H113.696V89.304C114.048 89.144 114.384 89.024 114.704 88.944C115.024 88.864 115.344 88.792 115.664 88.728V74.496C115.248 74.416 114.88 74.328 114.56 74.232C114.24 74.12 113.952 74.008 113.696 73.896V73.2H115.808C116.448 73.2 117.144 73.168 117.896 73.104C118.664 73.04 119.408 73.008 120.128 73.008C120.912 73.008 121.64 73.096 122.312 73.272C123 73.448 123.592 73.728 124.088 74.112C124.584 74.496 124.968 74.984 125.24 75.576C125.528 76.168 125.672 76.88 125.672 77.712C125.672 78.88 125.36 79.848 124.736 80.616C124.128 81.384 123.296 81.936 122.24 82.272C122.928 83.36 123.648 84.44 124.4 85.512C125.152 86.584 125.936 87.648 126.752 88.704L128.048 89.4V90H125.144L124.232 89.328C123.784 88.768 123.376 88.224 123.008 87.696C122.64 87.152 122.296 86.608 121.976 86.064C121.656 85.504 121.352 84.944 121.064 84.384C120.792 83.808 120.512 83.2 120.224 82.56H117.968V88.728ZM119.6 74.256C119.216 74.256 118.896 74.264 118.64 74.28C118.4 74.296 118.176 74.328 117.968 74.376V81.552H119.696C120.8 81.552 121.672 81.2 122.312 80.496C122.968 79.792 123.296 78.864 123.296 77.712C123.296 76.528 122.952 75.656 122.264 75.096C121.576 74.536 120.688 74.256 119.6 74.256Z" fill="white"/>
<path d="M114.008 112.2C113.768 112.136 113.544 112.056 113.336 111.96C113.144 111.864 112.944 111.752 112.736 111.624V111H117.752V111.6C117.416 111.824 116.96 112.024 116.384 112.2L119.456 119.304L119.912 120.792H119.96L120.32 119.28L122.6 112.2C122.12 112.104 121.68 111.912 121.28 111.624V111H125.384V111.624C125.048 111.848 124.592 112.04 124.016 112.2L120.272 123C119.888 124.024 119.52 124.848 119.168 125.472C118.832 126.112 118.488 126.616 118.136 126.984C117.8 127.352 117.448 127.616 117.08 127.776C116.728 127.952 116.344 128.08 115.928 128.16C115.752 127.856 115.592 127.52 115.448 127.152C115.32 126.784 115.208 126.432 115.112 126.096L115.424 125.52H117.92C118.016 125.392 118.096 125.264 118.16 125.136C118.24 125.024 118.32 124.88 118.4 124.704C118.48 124.528 118.568 124.304 118.664 124.032C118.76 123.76 118.872 123.416 119 123L114.008 112.2Z" fill="white"/>
<rect x="95.5" y="59.5" width="49" height="81" rx="19.5" stroke="white"/>
<line x1="109" y1="99.5" x2="131" y2="99.5" stroke="white"/>
</svg>
